X:63
C:Page 32
T:Lady Caroline Lees Waltz. MBe.63
S:Matthew Betham MS, Towcett Cumbria, 1815
O:England;Cumbria;Towcett
Z:VMP – Hugh Taylor, 2012
M:C
L:1/8
Q:3/4=40
R:.Waltz
N:Someone has written at the bottom of the page, in a different hand,
N:”cf Kitty of Coleraine”, to which it bears only a pssing resemblance in the first part.
N:The third word in the tune title is difficult to interpret, but based on other collections
N:(eg Thomas Sands)I have inferred it to be ‘Lees’, or even ‘Leigh’.
N:NB-There is blob here so the ‘A’ note could be a ‘c’
K:D
D|F/G/AA|B/c/dd|E/F/GG|G2 F|\
E/e/d/c/B/A/|dfa|ABc|d2:|
|:f|a/f/ee|e/c/AA|a/f/dd|Adf|\
a/f/ee|ecA|ABc|d2:|
|:F/G/|AGF|dcd|BAB|G2E|\
F>GA|”^NB”AGF|FEE|E2F/G/|
AGF|dcd|BAB|G2E|\
FGA|AGF|E E/D/E/F/|D2:|

